icons/webcamB.svg

<svg width="24" height="24" viewBox="0 0 24 24" fill="none" xmlns="http://www.w3.org/2000/svg">
<path fill-rule="evenodd" clip-rule="evenodd" d="M4.15002 10.1499C4.15002 5.84263 7.57893 2.29993 12 2.29993C16.3142 2.29993 19.85 5.83571 19.85 10.1499C19.85 14.4505 16.3278 18.0999 12 18.0999C7.679 18.0999 4.15002 14.5573 4.15002 10.1499ZM12 3.79993C8.42112 3.79993 5.65002 6.65722 5.65002 10.1499C5.65002 13.7426 8.52105 16.5999 12 16.5999C15.4723 16.5999 18.35 13.6494 18.35 10.1499C18.35 6.66414 15.4858 3.79993 12 3.79993ZM12 7.79993C10.7142 7.79993 9.65002 8.86414 9.65002 10.1499C9.65002 11.4357 10.7142 12.4999 12 12.4999C13.2858 12.4999 14.35 11.4357 14.35 10.1499C14.35 8.86414 13.2858 7.79993 12 7.79993ZM8.15002 10.1499C8.15002 8.03571 9.88581 6.29993 12 6.29993C14.1142 6.29993 15.85 8.03571 15.85 10.1499C15.85 12.2641 14.1142 13.9999 12 13.9999C9.88581 13.9999 8.15002 12.2641 8.15002 10.1499Z" fill="black"/>
<path d="M15.1 10.1499C15.1 11.8499 13.7 13.2499 12 13.2499C10.3 13.2499 8.90002 11.8499 8.90002 10.1499C8.90002 8.44993 10.3 7.04993 12 7.04993C13.7 7.04993 15.1 8.44993 15.1 10.1499Z" fill="black"/>
<path fill-rule="evenodd" clip-rule="evenodd" d="M12 7.79993C10.7142 7.79993 9.65002 8.86414 9.65002 10.1499C9.65002 11.4357 10.7142 12.4999 12 12.4999C13.2858 12.4999 14.35 11.4357 14.35 10.1499C14.35 8.86414 13.2858 7.79993 12 7.79993ZM8.15002 10.1499C8.15002 8.03571 9.88581 6.29993 12 6.29993C14.1142 6.29993 15.85 8.03571 15.85 10.1499C15.85 12.2641 14.1142 13.9999 12 13.9999C9.88581 13.9999 8.15002 12.2641 8.15002 10.1499Z" fill="black"/>
<path fill-rule="evenodd" clip-rule="evenodd" d="M11.25 20.9499V17.2499H12.75V20.9499H11.25Z" fill="black"/>
<path fill-rule="evenodd" clip-rule="evenodd" d="M7.55005 20.95C7.55005 20.5357 7.88584 20.2 8.30005 20.2H15.7C16.1143 20.2 16.45 20.5357 16.45 20.95C16.45 21.3642 16.1143 21.7 15.7 21.7H8.30005C7.88584 21.7 7.55005 21.3642 7.55005 20.95Z" fill="black"/>
</svg>

<svg xmlns="http://www.w3.org/2000/svg" fill="none" viewBox="0 0 24 24">
  <path fill="#000" fill-rule="evenodd" d="M4.15 10.15C4.15 5.843 7.579 2.3 12 2.3c4.314 0 7.85 3.536 7.85 7.85 0 4.3-3.522 7.95-7.85 7.95-4.321 0-7.85-3.543-7.85-7.95ZM12 3.8c-3.579 0-6.35 2.857-6.35 6.35 0 3.593 2.871 6.45 6.35 6.45 3.472 0 6.35-2.95 6.35-6.45 0-3.486-2.864-6.35-6.35-6.35Zm0 4a2.366 2.366 0 0 0-2.35 2.35A2.366 2.366 0 0 0 12 12.5a2.366 2.366 0 0 0 2.35-2.35A2.366 2.366 0 0 0 12 7.8Zm-3.85 2.35A3.866 3.866 0 0 1 12 6.3a3.866 3.866 0 0 1 3.85 3.85A3.866 3.866 0 0 1 12 14a3.866 3.866 0 0 1-3.85-3.85Z" clip-rule="evenodd"/>
  <path fill="#000" d="M15.1 10.15c0 1.7-1.4 3.1-3.1 3.1-1.7 0-3.1-1.4-3.1-3.1 0-1.7 1.4-3.1 3.1-3.1 1.7 0 3.1 1.4 3.1 3.1Z"/>
  <path fill="#000" fill-rule="evenodd" d="M12 7.8a2.366 2.366 0 0 0-2.35 2.35A2.366 2.366 0 0 0 12 12.5a2.366 2.366 0 0 0 2.35-2.35A2.366 2.366 0 0 0 12 7.8Zm-3.85 2.35A3.866 3.866 0 0 1 12 6.3a3.866 3.866 0 0 1 3.85 3.85A3.866 3.866 0 0 1 12 14a3.866 3.866 0 0 1-3.85-3.85Zm3.1 10.8v-3.7h1.5v3.7h-1.5Z" clip-rule="evenodd"/>
  <path fill="#000" fill-rule="evenodd" d="M7.55 20.95a.75.75 0 0 1 .75-.75h7.4a.75.75 0 1 1 0 1.5H8.3a.75.75 0 0 1-.75-.75Z" clip-rule="evenodd"/>
</svg>
